Newaita-dark/actions/16/media-playlist-repeat.svg

<svg height="16" viewBox="0 0 16 16" width="16" xmlns="http://www.w3.org/2000/svg"><g fill="#e0e0e0"><path d="m4.300781 14.679688-2.316406-3.308594h1.652344v-9.59375c0-.183594.148437-.328125.332031-.328125h.660156c.183594 0 .332032.144531.332032.328125v9.59375h1.652343zm0 0"/><path d="m11.578125 1.449219-2.316406 3.304687h1.652343v9.59375c0 .183594.148438.332032.332032.332032h.660156c.183594 0 .332031-.148438.332031-.332032v-9.59375h1.652344zm0 0"/></g></svg>

<svg xmlns="http://www.w3.org/2000/svg" xmlns:xlink="http://www.w3.org/1999/xlink" width="16px" height="16px" viewBox="0 0 16 16" version="1.1">
<g id="surface1">
     <defs>
  <style id="current-color-scheme" type="text/css">
   .ColorScheme-Text { color:#eeeeee; } .ColorScheme-Highlight { color:#424242; }
  </style>
 </defs>
<path style="fill:currentColor" class="ColorScheme-Text" d="M 4.300781 14.679688 L 1.984375 11.371094 L 3.636719 11.371094 L 3.636719 1.777344 C 3.636719 1.59375 3.785156 1.449219 3.96875 1.449219 L 4.628906 1.449219 C 4.8125 1.449219 4.960938 1.59375 4.960938 1.777344 L 4.960938 11.371094 L 6.613281 11.371094 Z M 4.300781 14.679688 "/>
     <defs>
  <style id="current-color-scheme" type="text/css">
   .ColorScheme-Text { color:#eeeeee; } .ColorScheme-Highlight { color:#424242; }
  </style>
 </defs>
<path style="fill:currentColor" class="ColorScheme-Text" d="M 11.578125 1.449219 L 9.261719 4.753906 L 10.914062 4.753906 L 10.914062 14.347656 C 10.914062 14.53125 11.0625 14.679688 11.246094 14.679688 L 11.90625 14.679688 C 12.089844 14.679688 12.238281 14.53125 12.238281 14.347656 L 12.238281 4.753906 L 13.890625 4.753906 Z M 11.578125 1.449219 "/>
</g>
</svg>
